icons/svg/24x24/reject squircle/filled.svg

<svg width="24" height="24" fill="none" xmlns="http://www.w3.org/2000/svg">
  <path fill-rule="evenodd" clip-rule="evenodd" d="M9 16a.999.999 0 01-.707-1.707L10.586 12 8.293 9.707a.999.999 0 111.414-1.414L12 10.586l2.293-2.293a.997.997 0 011.414 0 .999.999 0 010 1.414L13.414 12l2.293 2.293a.999.999 0 11-1.414 1.414L12 13.414l-2.293 2.293A.997.997 0 019 16zm12.441-9.246a5.47 5.47 0 00-4.195-4.195A24.711 24.711 0 0012 2c-1.8 0-3.555.192-5.245.558a5.472 5.472 0 00-4.197 4.196A24.762 24.762 0 002 12c0 1.8.192 3.555.558 5.245a5.472 5.472 0 004.196 4.196C8.445 21.808 10.2 22 12 22c1.8 0 3.555-.192 5.246-.559a5.47 5.47 0 004.195-4.196C21.808 15.555 22 13.8 22 12c0-1.8-.192-3.555-.559-5.246z" fill="#000"/>
</svg>

<svg xmlns="http://www.w3.org/2000/svg" width="24" height="24" viewBox="0 0 24 24">
  <path fill-rule="evenodd" d="M9,16 C8.744,16 8.488,15.902 8.293,15.707 C7.902,15.316 7.902,14.684 8.293,14.293 L10.586,12 L8.293,9.707 C7.902,9.316 7.902,8.684 8.293,8.293 C8.488,8.098 8.744,8 9,8 C9.256,8 9.512,8.098 9.707,8.293 L12,10.586 L14.293,8.293 C14.488,8.098 14.744,8 15,8 C15.256,8 15.512,8.098 15.707,8.293 C16.098,8.684 16.098,9.316 15.707,9.707 L13.414,12 L15.707,14.293 C16.098,14.684 16.098,15.316 15.707,15.707 C15.512,15.902 15.256,16 15,16 C14.744,16 14.488,15.902 14.293,15.707 L12,13.414 L9.707,15.707 C9.512,15.902 9.256,16 9,16 M21.441,6.754 C20.987,4.652 19.348,3.013 17.246,2.559 C15.555,2.192 13.8,2 12,2 C10.2,2 8.445,2.192 6.755,2.558 C4.651,3.012 3.013,4.651 2.558,6.754 C2.192,8.444 2,10.199 2,12 C2,13.8 2.192,15.555 2.558,17.245 C3.013,19.348 4.651,20.987 6.754,21.441 C8.445,21.808 10.2,22 12,22 C13.8,22 15.555,21.808 17.246,21.441 C19.348,20.987 20.987,19.348 21.441,17.245 C21.808,15.555 22,13.8 22,12 C22,10.2 21.808,8.445 21.441,6.754"/>
</svg>
